styles/1/Numix/48/places/default-folder-steam.svg

<?xml version="1.0" encoding="UTF-8" standalone="no"?>
<!-- Created with Inkscape (http://www.inkscape.org/) -->

<svg
   xmlns:dc="http://purl.org/dc/elements/1.1/"
   xmlns:cc="http://creativecommons.org/ns#"
   xmlns:rdf="http://www.w3.org/1999/02/22-rdf-syntax-ns#"
   xmlns:svg="http://www.w3.org/2000/svg"
   xmlns="http://www.w3.org/2000/svg"
   xmlns:sodipodi="http://sodipodi.sourceforge.net/DTD/sodipodi-0.dtd"
   xmlns:inkscape="http://www.inkscape.org/namespaces/inkscape"
   width="48"
   height="48"
   id="svg2"
   version="1.1"
   inkscape:version="0.91 r"
   sodipodi:docname="default-folder-steam.svg">
  <defs
     id="defs4" />
  <sodipodi:namedview
     id="base"
     pagecolor="#ffffff"
     bordercolor="#666666"
     borderopacity="1.0"
     inkscape:pageopacity="0.0"
     inkscape:pageshadow="2"
     inkscape:zoom="11.313709"
     inkscape:cx="40.074968"
     inkscape:cy="38.415851"
     inkscape:document-units="px"
     inkscape:current-layer="layer1"
     showgrid="true"
     inkscape:window-width="1280"
     inkscape:window-height="998"
     inkscape:window-x="0"
     inkscape:window-y="0"
     inkscape:window-maximized="1">
    <inkscape:grid
       type="xygrid"
       id="grid2990"
       empspacing="5"
       visible="true"
       enabled="true"
       snapvisiblegridlinesonly="true" />
  </sodipodi:namedview>
  <metadata
     id="metadata7">
    <rdf:RDF>
      <cc:Work
         rdf:about="">
        <dc:format>image/svg+xml</dc:format>
        <dc:type
           rdf:resource="http://purl.org/dc/dcmitype/StillImage" />
        <dc:title />
      </cc:Work>
    </rdf:RDF>
  </metadata>
  <g
     inkscape:label="Body"
     inkscape:groupmode="layer"
     id="layer1"
     transform="translate(0,-1004.3622)">
    <path
       style="font-size:medium;font-style:normal;font-variant:normal;font-weight:normal;font-stretch:normal;text-indent:0;text-align:start;text-decoration:none;line-height:normal;letter-spacing:normal;word-spacing:normal;text-transform:none;direction:ltr;block-progression:tb;writing-mode:lr-tb;text-anchor:start;baseline-shift:baseline;color:#000000;fill:#c4905e;fill-opacity:1;fill-rule:nonzero;stroke:none;stroke-width:3.00000024;marker:none;visibility:visible;display:inline;overflow:visible;enable-background:accumulate;font-family:Sans;-inkscape-font-specification:Sans"
       d="M 5.1875 8 C 4.511132 8.144 3.984919 8.8087 4 9.5 L 4 37.5 C 4.000079 38.2853 4.714623 38.9999 5.5 39 L 42.5 39 C 43.285377 38.9999 43.999921 38.2853 44 37.5 L 44 12.53125 C 43.999921 11.74585 43.285377 11.03135 42.5 11.03125 L 28 11.03125 L 28 9.5 C 27.999921 8.7147 27.285377 8 26.5 8 L 5.5 8 C 5.396212 7.989 5.291288 7.989 5.1875 8 z M 29.0625 17.625 C 31.225879 17.625 33 19.3468 33 21.4375 C 33 22.997847 32.022768 24.350536 30.625 24.9375 L 28.5 28.5 C 28.85429 28.955068 29.0625 29.515595 29.0625 30.125 C 29.0625 31.6203 27.796556 32.84375 26.25 32.84375 C 24.727924 32.84375 23.473553 31.653196 23.4375 30.1875 L 19.5 28.46875 C 19.026929 28.817338 18.448626 29.03125 17.8125 29.03125 C 16.268021 29.03125 15 27.8078 15 26.3125 C 15 24.8192 16.268713 23.59375 17.8125 23.59375 C 19.34784 23.59375 20.606789 24.803334 20.625 26.28125 C 20.625133 26.292047 20.625 26.301675 20.625 26.3125 L 24.53125 28 C 24.86827 27.743392 25.25404 27.555297 25.6875 27.46875 L 25.6875 23.34375 C 25.344206 22.779261 25.125 22.1344 25.125 21.4375 C 25.125 19.3448 26.896353 17.625 29.0625 17.625 z M 29.0625 18.90625 C 27.605249 18.90625 26.4375 20.0315 26.4375 21.4375 C 26.4375 22.8463 27.605249 23.96875 29.0625 23.96875 C 30.516983 23.96875 31.6875 22.8463 31.6875 21.4375 C 31.6875 20.0315 30.517675 18.90625 29.0625 18.90625 z M 29.0625 19.78125 C 29.995695 19.78125 30.75 20.50355 30.75 21.40625 C 30.75 22.30695 29.995695 23.0625 29.0625 23.0625 C 28.132074 23.0625 27.375 22.30625 27.375 21.40625 C 27.375 20.50285 28.132074 19.78125 29.0625 19.78125 z M 17.8125 24.6875 C 16.687543 24.6875 16.125 25.2256 16.125 26.3125 C 16.125 27.4021 16.687543 27.9375 17.8125 27.9375 C 17.966304 27.9375 18.117208 27.95775 18.25 27.9375 L 17.4375 27.5625 C 16.799218 27.3029 16.510568 26.6168 16.78125 26 C 17.051932 25.3801 17.799217 25.08145 18.4375 25.34375 L 19.4375 25.78125 C 19.27003 25.053991 18.73498 24.6875 17.8125 24.6875 z M 26.25 28.3125 C 26.015029 28.3125 25.80018 28.362437 25.59375 28.4375 L 26.78125 28.96875 C 27.419532 29.22835 27.739432 29.9457 27.46875 30.5625 C 27.198068 31.1823 26.450783 31.48115 25.8125 31.21875 L 24.4375 30.625 C 24.655694 31.389332 25.38686 31.9375 26.25 31.9375 C 27.291191 31.9375 28.125 31.1309 28.125 30.125 C 28.125 29.1191 27.291191 28.3125 26.25 28.3125 z "
       transform="translate(0,1004.3622)"
       id="path3912" />
  </g>
</svg>

<!-- Created with Inkscape (http://www.inkscape.org/) -->
<svg xmlns="http://www.w3.org/2000/svg" viewBox="0 0 48 48">
 <g transform="translate(0,-1004.3622)">
  <path d="m 5.188 8 c -0.676 0.144 -1.203 0.809 -1.188 1.5 l 0 28 c 0 0.785 0.715 1.5 1.5 1.5 l 37 0 c 0.785 0 1.5 -0.715 1.5 -1.5 l 0 -24.969 c 0 -0.785 -0.715 -1.5 -1.5 -1.5 l -14.5 0 l 0 -1.531 c 0 -0.785 -0.715 -1.5 -1.5 -1.5 l -21 0 c -0.104 -0.011 -0.209 -0.011 -0.313 0 z m 23.875 9.625 c 2.163 0 3.938 1.722 3.938 3.813 c 0 1.56 -0.977 2.913 -2.375 3.5 l -2.125 3.563 c 0.354 0.455 0.563 1.016 0.563 1.625 c 0 1.495 -1.266 2.719 -2.813 2.719 c -1.522 0 -2.776 -1.191 -2.813 -2.656 l -3.938 -1.719 c -0.473 0.349 -1.051 0.563 -1.688 0.563 c -1.544 0 -2.813 -1.223 -2.813 -2.719 c 0 -1.493 1.269 -2.719 2.813 -2.719 c 1.535 0 2.794 1.21 2.813 2.688 c 0 0.011 0 0.02 0 0.031 l 3.906 1.688 c 0.337 -0.257 0.723 -0.445 1.156 -0.531 l 0 -4.125 c -0.343 -0.564 -0.563 -1.209 -0.563 -1.906 c 0 -2.093 1.771 -3.813 3.938 -3.813 z m 0 1.281 c -1.457 0 -2.625 1.125 -2.625 2.531 c 0 1.409 1.168 2.531 2.625 2.531 c 1.454 0 2.625 -1.122 2.625 -2.531 c 0 -1.406 -1.17 -2.531 -2.625 -2.531 z m 0 0.875 c 0.933 0 1.688 0.722 1.688 1.625 c 0 0.901 -0.754 1.656 -1.688 1.656 c -0.93 0 -1.688 -0.756 -1.688 -1.656 c 0 -0.903 0.757 -1.625 1.688 -1.625 z m -11.25 4.906 c -1.125 0 -1.688 0.538 -1.688 1.625 c 0 1.09 0.563 1.625 1.688 1.625 c 0.154 0 0.305 0.02 0.438 0 l -0.813 -0.375 c -0.638 -0.26 -0.927 -0.946 -0.656 -1.563 c 0.271 -0.62 1.018 -0.919 1.656 -0.656 l 1 0.438 c -0.167 -0.727 -0.703 -1.094 -1.625 -1.094 z m 8.438 3.625 c -0.235 0 -0.45 0.05 -0.656 0.125 l 1.188 0.531 c 0.638 0.26 0.958 0.977 0.688 1.594 c -0.271 0.62 -1.018 0.919 -1.656 0.656 l -1.375 -0.594 c 0.218 0.764 0.949 1.313 1.813 1.313 c 1.041 0 1.875 -0.807 1.875 -1.813 c 0 -1.01 -0.834 -1.813 -1.875 -1.813 z" transform="translate(0,1004.3622)" style="visibility:visible;fill:#c4905e;fill-opacity:1;stroke:none;display:inline;color:#000;fill-rule:nonzero"/>
 </g>
</svg>
